X: 09070
T: MACINTIRE'S #1
C: Bob McQuillen 29 Nov 92
B: Bob's Note Book 9 #70
%R: reel
Z: 2018 John Chambers <jc:trillian.mit.edu>
M: C
L: 1/8
K: D
AG \
| FDFA d2fa | gfed fedB | A2AG FAdA | BdAF E2AG |
| FDFA dfaf | gfed B2de | fdBd Aceg | f2d2 d2  :|
|: dB \
| Adfa f2fe | defd edBd | Adfa f2de | fdgf e2fe |
| dfab afde | fdgf edBA | defa gecd | e2d2 d2  :|
%%begintext align
%% Banjo player Ray MacIntire has been
%% a part of the New England music scene as far back as I can recall.
%% I can't think of a New England Folk Festival he hasn't been at, and
%% that goes back a long way. He and his lovely wife, Lois, have
%% been awfully nice to me over the years, even to the extent of
%% providing B and B on occasions when I was at Neffa and had no housing.
%% I sure do thank you, folks!
%%endtext

%%sep 1 1 500

%%sep 1 1 500

